X:222
R:Visa
B:August Bondesons Visbok nr 222
Z:[[Profiles/Tommy Rådberg]]
T:Ett evigt farväl i Vassmolösa
M:2/4
L:1/16
K:G
D2|G4A3B|B4A3G|G4F2E2|E4D2D2|E4E2F2|G4A2c2|B4A2F2|G4z2D2|G4A3B|B4A3G|G4F2E2|E4D2D2|E4E2F2|G4A2c2|B4A2F2|G4z2A2|A4F3G|A6F2|D4G3A|B6A2|B4A3B|A4G3A|B4A3A|G4z2|]

